X: 3
T: The Noisy Curlew
R: reel
M: 4/4
L: 1/8
K: Dmaj
|: DF F2 DG G2 | DF F2 E2 FE | DF F2 ABde | fdAG FDDA |
DF F2 DG G2 | DF F2 E2 FE | DF F2 ABde | fdAG FDDA :||
|: fgaf g2 ag | fgaf gfeg | fgaf g2 ag | fdAG FDDA |
fgaf g2 ag | fgaf gfeg | fdAF G2 ag | fdAG FDDA :||


Tune 1432	Setting 1432

